!!! OTL: Berkowitz298
!!! Chapter: 1
!!! Section: III
!!! Page: 71
!!! Mode: 
!!! Encoder: DJB
**kern
*staff1
*I"Piano
=1-
*clefC4
*k[b-e-a-]
*E-:
*M6/4
4.G/
8A-\
4G/
2F/
4B-\
=2
4A-\
4G/
4F/
2G/
4E-/
=3
2C/
4F/
2BB-/
4E-/
=4
4C/
4C/
4F/
2BB-/
8E-/L
8F/J
=5
4.G/
8A-\
4B-\
4c\
4B-\
4A-\
=6
4.B-\
8c\
4B-\
2A-\
8G/L
8A-/J
=7
4B-\
4E-/
4r
4A-\
4D/
4r
=8
!!linebreak:original
4G/
4C/
4r
4BB-/
4F/
4r
=9
4.G/
8A-\
4G/
4F/
4E-/
4D/
=10
[2.E-/
2E-/]
4r
==
*-
